X:7922
T:Down in the willow gardens
C:anon.
O:USA
Z:Transcribed by Frank Nordberg - http://www.musicaviva.com
F:http://abc.musicaviva.com/tunes/usa/willow-gardens.abc
M:3/4
L:1/4
K:F
C|F2F|(AGF)|(c3|d2)(A/G/)|FFF|(AGA)|D3-|D2C|
F2F|(AGF)|(c3|d2)d|F2F|(DFG)|F3-|Fzc|
d2f|(dcA)|ccc|d2(A/G/)|F2F|(AGA)|D3-|D2C|
F2F|(AGF)|ccc|d2(A/G/)|FFF|(DFG)|F3-|Fz|]
W:
W:
W:  From Musica Viva - http://www.musicaviva.com
W:  the Internet center for free sheet music downloads.
